X: 23685
T: Lintie, The
R: reel
M: 4/4
K: Amajor
|:eA(3(AAA)A2Ac|efec fece|fB(3(BBB)B2BA|(3(BBB)fe (3(fff)af|
eA(3(AAA)A2Ac|efec fece|fgaf ecac|1 Bcef A2af:|2 Bcef A2cd||
|:e3f eA(3(AAA)|AceA ceAc|f3g fB(3(BBB)|BdfB dfaf|
e3f eA(3(AAA)|AceA ceAc|fgaf ecac|1 Bcef A2cd:|2 Bcef A2z2||

